;FLAVOR:Marlin
;TIME:3575
;Filament used: 2.49029m
;Layer height: 0.2
;MINX:69.76
;MINY:55.089
;MINZ:0.2
;MAXX:125.36
;MAXY:120.689
;MAXZ:22
;Generated with Cura_SteamEngine 4.11.0
M140 S60
M105
M190 S60
M104 S200
M105
M109 S200
M82 ;absolute extrusion mode
; -- START GCODE --
G21        ;metric values
G90        ;absolute positioning
M82        ;set extruder to absolute mode
M107       ;start with the fan off
G28 X0 Y0  ;move X/Y to min endstops
G28 Z0     ;move Z to min endstops
G1 Z1 F1000             ;move up slightly
G1 Y60.0 Z0 E9.0 F1000.0;intro line
G1 Y100.0 E21.5 F1000.0 ;continue line
G92 E0                  ;zero the extruded length again
G1 F80
;Put printing message on LCD screen
M117 Printing...
; -- end of START GCODE --
G92 E0
G92 E0
G1 F2700 E-5
;LAYER_COUNT:110
;LAYER:0
M107
G0 F3600 X72.556 Y59.916 Z0.2
;TYPE:SKIRT
G1 F2700 E0
G1 F1200 X73.274 Y59.09 E0.0364
G1 X73.768 Y58.596 E0.05964
G1 X74.622 Y57.857 E0.0972
G1 X75.195 Y57.43 E0.12097
G1 X76.108 Y56.844 E0.15705
G1 X76.734 Y56.501 E0.18079
G1 X77.746 Y56.037 E0.21782
G1 X78.408 Y55.789 E0.24133
G1 X79.477 Y55.473 E0.27841
G1 X80.172 Y55.321 E0.30207
G1 X81.28 Y55.161 E0.33931
G1 X82.004 Y55.109 E0.36345
G1 X82.563 Y55.089 E0.38205
G1 X112.599 Y55.09 E1.38105
G1 X113.171 Y55.111 E1.40009
G1 X113.837 Y55.16 E1.4223
G1 X114.919 Y55.316 E1.45866
G1 X115.615 Y55.467 E1.48235
G1 X115.986 Y55.557 E1.49505
G1 X116.721 Y55.793 E1.52072
G1 X117.394 Y56.046 E1.54464
G1 X118.409 Y56.513 E1.5818
G1 X119.036 Y56.858 E1.6056
G1 X119.96 Y57.455 E1.64219
G1 X120.53 Y57.883 E1.6659
G1 X121.378 Y58.621 E1.70329
G1 X121.869 Y59.115 E1.72645
G1 X122.582 Y59.941 E1.76274
G1 X123.01 Y60.513 E1.78651
G1 X123.613 Y61.452 E1.82362
G1 X123.962 Y62.092 E1.84787
G1 X124.424 Y63.106 E1.88493
G1 X124.667 Y63.759 E1.9081
G1 X124.978 Y64.817 E1.94478
G1 X125.13 Y65.514 E1.96851
G1 X125.288 Y66.61 E2.00534
G1 X125.339 Y67.311 E2.02872
G1 X125.36 Y67.877 E2.04755
G1 X125.359 Y107.928 E3.37966
G1 X125.337 Y108.508 E3.39896
G1 X125.287 Y109.179 E3.42134
G1 X125.13 Y110.261 E3.4577
G1 X124.978 Y110.958 E3.48143
G1 X124.666 Y112.02 E3.51825
G1 X124.417 Y112.688 E3.54196
G1 X123.953 Y113.704 E3.57911
G1 X123.605 Y114.341 E3.60325
G1 X123.003 Y115.277 E3.64026
G1 X122.582 Y115.839 E3.66362
G1 X121.854 Y116.678 E3.70056
G1 X121.342 Y117.19 E3.72465
G1 X120.479 Y117.936 E3.76259
G1 X119.915 Y118.355 E3.78596
G1 X119 Y118.94 E3.82208
G1 X118.368 Y119.285 E3.84603
G1 X117.353 Y119.749 E3.88315
G1 X116.687 Y119.997 E3.90678
G1 X115.618 Y120.31 E3.94383
G1 X114.917 Y120.462 E3.96769
G1 X113.814 Y120.62 E4.00475
G1 X113.107 Y120.67 E4.02832
G1 X112.557 Y120.689 E4.04663
G1 X82.521 Y120.688 E5.04563
G1 X81.938 Y120.666 E5.06503
G1 X81.257 Y120.615 E5.08775
G1 X80.157 Y120.453 E5.12473
G1 X79.46 Y120.299 E5.14847
G1 X78.405 Y119.987 E5.18506
G1 X77.738 Y119.737 E5.20875
G1 X76.727 Y119.273 E5.24575
G1 X76.094 Y118.926 E5.26976
G1 X75.179 Y118.338 E5.30593
G1 X74.628 Y117.927 E5.3288
G1 X73.777 Y117.19 E5.36624
G1 X73.265 Y116.678 E5.39032
G1 X72.528 Y115.827 E5.42777
G1 X72.099 Y115.252 E5.45163
G1 X71.499 Y114.315 E5.48863
G1 X71.153 Y113.679 E5.51272
G1 X70.688 Y112.654 E5.55015
G1 X70.441 Y111.985 E5.57387
G1 X70.132 Y110.922 E5.61069
G1 X69.982 Y110.224 E5.63444
G1 X69.827 Y109.124 E5.67138
G1 X69.779 Y108.431 E5.69449
G1 X69.76 Y107.892 E5.71243
G1 X69.761 Y67.85 E7.04423
G1 X69.782 Y67.283 E7.0631
G1 X69.831 Y66.611 E7.08551
G1 X69.989 Y65.516 E7.12231
G1 X70.141 Y64.819 E7.14603
G1 X70.455 Y63.753 E7.183
G1 X70.704 Y63.086 E7.20668
G1 X71.168 Y62.071 E7.24379
G1 X71.518 Y61.431 E7.26806
G1 X72.128 Y60.485 E7.30549
G1 X72.556 Y59.916 E7.32918
G0 F3600 X72.875 Y60.157
G1 F1200 X73.556 Y59.372 E7.36374
G1 X74.05 Y58.878 E7.38698
G1 X74.861 Y58.177 E7.42263
G1 X75.434 Y57.75 E7.4464
G1 X76.3 Y57.194 E7.48063
G1 X76.926 Y56.851 E7.50437
G1 X77.886 Y56.411 E7.53949
G1 X78.548 Y56.163 E7.56301
G1 X79.563 Y55.864 E7.5982
G1 X80.258 Y55.712 E7.62186
G1 X81.309 Y55.56 E7.65718
G1 X82.033 Y55.508 E7.68132
G1 X82.563 Y55.489 E7.69896
G1 X112.599 Y55.49 E8.69796
G1 X113.142 Y55.51 E8.71604
G1 X113.808 Y55.559 E8.73825
G1 X114.834 Y55.707 E8.77273
G1 X115.53 Y55.858 E8.79641
G1 X115.883 Y55.944 E8.8085
G1 X116.58 Y56.167 E8.83284
G1 X117.253 Y56.42 E8.85675
G1 X118.216 Y56.864 E8.89202
G1 X118.843 Y57.209 E8.91582
G1 X119.719 Y57.774 E8.95049
G1 X120.289 Y58.202 E8.9742
G1 X121.095 Y58.903 E9.00973
G1 X121.586 Y59.397 E9.0329
G1 X122.262 Y60.181 E9.06733
G1 X122.69 Y60.753 E9.09109
G1 X123.262 Y61.643 E9.12628
G1 X123.611 Y62.283 E9.15052
G1 X124.049 Y63.245 E9.18568
G1 X124.292 Y63.898 E9.20885
G1 X124.587 Y64.902 E9.24366
G1 X124.739 Y65.599 E9.26738
G1 X124.889 Y66.639 E9.30233
G1 X124.94 Y67.34 E9.32571
G1 X124.96 Y67.877 E9.34358
G1 X124.959 Y107.928 E10.67568
G1 X124.939 Y108.478 E10.69399
G1 X124.889 Y109.149 E10.71637
G1 X124.739 Y110.176 E10.75089
G1 X124.587 Y110.873 E10.77462
G1 X124.291 Y111.881 E10.80956
G1 X124.042 Y112.549 E10.83327
G1 X123.602 Y113.512 E10.86848
G1 X123.254 Y114.149 E10.89263
G1 X122.683 Y115.038 E10.92777
G1 X122.262 Y115.6 E10.95112
G1 X121.572 Y116.396 E10.98616
G1 X121.06 Y116.908 E11.01024
G1 X120.24 Y117.615 E11.04625
G1 X119.676 Y118.034 E11.06962
G1 X118.809 Y118.589 E11.10386
G1 X118.177 Y118.934 E11.12781
G1 X117.213 Y119.374 E11.16305
G1 X116.547 Y119.622 E11.18669
G1 X115.533 Y119.919 E11.22183
G1 X114.832 Y120.071 E11.24569
G1 X113.786 Y120.221 E11.28084
G1 X113.079 Y120.271 E11.30441
G1 X112.557 Y120.289 E11.32178
G1 X82.521 Y120.288 E12.32078
G1 X81.968 Y120.267 E12.33919
G1 X81.287 Y120.216 E12.3619
G1 X80.243 Y120.063 E12.397
G1 X79.546 Y119.909 E12.42074
G1 X78.546 Y119.612 E12.45544
G1 X77.879 Y119.362 E12.47913
G1 X76.919 Y118.922 E12.51425
G1 X76.286 Y118.575 E12.53826
G1 X75.419 Y118.018 E12.57254
G1 X74.868 Y117.607 E12.5954
G1 X74.059 Y116.908 E12.63096
G1 X73.547 Y116.396 E12.65504
G1 X72.849 Y115.588 E12.69056
G1 X72.42 Y115.013 E12.71442
G1 X71.851 Y114.124 E12.74952
G1 X71.505 Y113.488 E12.7736
G1 X71.063 Y112.515 E12.80915
G1 X70.816 Y111.846 E12.83287
G1 X70.523 Y110.838 E12.86778
G1 X70.373 Y110.14 E12.89153
G1 X70.226 Y109.096 E12.92659
G1 X70.178 Y108.403 E12.9497
G1 X70.16 Y107.892 E12.9667
G1 X70.161 Y67.85 E14.29851
G1 X70.181 Y67.312 E14.31641
G1 X70.23 Y66.64 E14.33882
G1 X70.38 Y65.601 E14.37374
G1 X70.532 Y64.904 E14.39747
G1 X70.829 Y63.893 E14.43251
G1 X71.078 Y63.226 E14.45619
G1 X71.518 Y62.263 E14.49141
G1 X71.868 Y61.623 E14.51567
G1 X72.447 Y60.726 E14.55118
G1 X72.875 Y60.157 E14.57486
G0 F3600 X73.195 Y60.397
G1 F1200 X73.839 Y59.655 E14.60754
G1 X74.333 Y59.161 E14.63077
G1 X75.1 Y58.498 E14.66449
G1 X75.673 Y58.071 E14.68826
G1 X76.492 Y57.545 E14.72064
G1 X77.118 Y57.202 E14.74438
G1 X78.026 Y56.786 E14.7776
G1 X78.688 Y56.538 E14.80111
G1 X79.648 Y56.255 E14.8344
G1 X80.343 Y56.103 E14.85806
G1 X81.338 Y55.959 E14.8915
G1 X82.062 Y55.907 E14.91564
G1 X82.563 Y55.889 E14.93231
G1 X112.599 Y55.89 E15.93132
G1 X113.113 Y55.909 E15.94842
G1 X113.779 Y55.958 E15.97063
G1 X114.749 Y56.098 E16.00323
G1 X115.445 Y56.249 E16.02692
G1 X115.78 Y56.33 E16.03838
G1 X116.439 Y56.542 E16.06141
G1 X117.112 Y56.795 E16.08532
G1 X118.024 Y57.214 E16.1187
G1 X118.651 Y57.559 E16.1425
G1 X119.479 Y58.094 E16.17529
G1 X120.049 Y58.522 E16.199
G1 X120.811 Y59.185 E16.23259
G1 X121.302 Y59.679 E16.25576
G1 X121.942 Y60.42 E16.28833
G1 X122.37 Y60.992 E16.31209
G1 X122.911 Y61.835 E16.3454
G1 X123.26 Y62.475 E16.36965
G1 X123.674 Y63.385 E16.4029
G1 X123.917 Y64.038 E16.42607
G1 X124.196 Y64.988 E16.459
G1 X124.348 Y65.685 E16.48273
G1 X124.491 Y66.668 E16.51577
G1 X124.542 Y67.369 E16.53915
G1 X124.56 Y67.877 E16.55605
G1 X124.559 Y107.928 E17.88816
G1 X124.54 Y108.448 E17.90546
G1 X124.49 Y109.119 E17.92784
G1 X124.348 Y110.09 E17.96048
G1 X124.196 Y110.787 E17.98421
G1 X123.916 Y111.741 E18.01728
G1 X123.667 Y112.409 E18.04099
G1 X123.251 Y113.32 E18.0743
G1 X122.903 Y113.957 E18.09844
G1 X122.362 Y114.798 E18.1317
G1 X121.941 Y115.36 E18.15506
G1 X121.289 Y116.113 E18.18818
G1 X120.777 Y116.625 E18.21227
G1 X120.001 Y117.294 E18.24634
G1 X119.437 Y117.713 E18.26971
G1 X118.617 Y118.238 E18.3021
G1 X117.985 Y118.583 E18.32605
G1 X117.074 Y118.999 E18.35936
G1 X116.408 Y119.247 E18.38299
G1 X115.448 Y119.528 E18.41626
G1 X114.747 Y119.68 E18.44012
G1 X113.758 Y119.822 E18.47335
G1 X113.051 Y119.872 E18.49692
G1 X112.557 Y119.889 E18.51336
G1 X82.521 Y119.888 E19.51237
G1 X81.998 Y119.868 E19.52977
G1 X81.317 Y119.817 E19.55249
G1 X80.33 Y119.672 E19.58567
G1 X79.633 Y119.518 E19.60941
G1 X78.686 Y119.238 E19.64225
G1 X78.019 Y118.988 E19.66595
G1 X77.111 Y118.571 E19.69918
G1 X76.478 Y118.224 E19.72319
G1 X75.658 Y117.697 E19.75561
G1 X75.107 Y117.286 E19.77847
G1 X74.342 Y116.625 E19.8121
G1 X73.83 Y116.113 E19.83618
G1 X73.169 Y115.349 E19.86978
G1 X72.74 Y114.774 E19.89364
G1 X72.202 Y113.933 E19.92685
G1 X71.856 Y113.297 E19.95093
G1 X71.438 Y112.376 E19.98457
G1 X71.191 Y111.707 E20.00829
G1 X70.914 Y110.754 E20.0413
G1 X70.764 Y110.056 E20.06504
G1 X70.625 Y109.069 E20.09819
G1 X70.577 Y108.376 E20.1213
G1 X70.56 Y107.892 E20.13741
G1 X70.561 Y67.85 E21.46921
G1 X70.58 Y67.341 E21.48615
G1 X70.629 Y66.669 E21.50856
G1 X70.771 Y65.687 E21.54156
G1 X70.923 Y64.99 E21.56529
G1 X71.204 Y64.033 E21.59846
G1 X71.453 Y63.366 E21.62214
G1 X71.869 Y62.455 E21.65545
G1 X72.219 Y61.815 E21.67971
G1 X72.767 Y60.966 E21.71332
G1 X73.195 Y60.397 E21.737
G0 F3600 X73.515 Y60.638
G1 F1200 X74.122 Y59.938 E21.76782
G1 X74.616 Y59.444 E21.79106
G1 X75.339 Y58.819 E21.82284
G1 X75.912 Y58.392 E21.84661
G1 X76.685 Y57.896 E21.87716
G1 X77.311 Y57.553 E21.9009
G1 X78.167 Y57.16 E21.93223
G1 X78.829 Y56.912 E21.95574
G1 X79.734 Y56.645 E21.98712
G1 X80.429 Y56.493 E22.01079
G1 X81.366 Y56.358 E22.04227
G1 X82.09 Y56.306 E22.06641
G1 X82.563 Y56.289 E22.08216
G1 X112.599 Y56.29 E23.08116
G1 X113.083 Y56.308 E23.09727
G1 X113.749 Y56.357 E23.11948
G1 X114.664 Y56.489 E23.15023
G1 X115.36 Y56.64 E23.17391
G1 X115.677 Y56.717 E23.18476
G1 X116.298 Y56.916 E23.20645
G1 X116.971 Y57.169 E23.23037
G1 X117.831 Y57.565 E23.26186
G1 X118.458 Y57.91 E23.28566
G1 X119.239 Y58.414 E23.31658
G1 X119.809 Y58.842 E23.34028
G1 X120.527 Y59.467 E23.37194
G1 X121.018 Y59.961 E23.39511
G1 X121.621 Y60.66 E23.42581
G1 X122.049 Y61.232 E23.44958
G1 X122.559 Y62.026 E23.48096
G1 X122.908 Y62.666 E23.50521
G1 X123.3 Y63.524 E23.53658
G1 X123.543 Y64.177 E23.55976
G1 X123.805 Y65.073 E23.59081
G1 X123.957 Y65.77 E23.61453
G1 X124.092 Y66.697 E23.64569
G1 X124.143 Y67.398 E23.66907
G1 X124.16 Y67.877 E23.68501
G1 X124.159 Y107.928 E25.01711
G1 X124.141 Y108.418 E25.03342
G1 X124.091 Y109.089 E25.0558
G1 X123.957 Y110.005 E25.08659
G1 X123.805 Y110.702 E25.11032
G1 X123.541 Y111.601 E25.14148
G1 X123.292 Y112.269 E25.16519
G1 X122.9 Y113.128 E25.1966
G1 X122.552 Y113.765 E25.22074
G1 X122.042 Y114.558 E25.2521
G1 X121.621 Y115.12 E25.27545
G1 X121.006 Y115.83 E25.30669
G1 X120.494 Y116.342 E25.33078
G1 X119.763 Y116.973 E25.36289
G1 X119.199 Y117.392 E25.38626
G1 X118.425 Y117.887 E25.41682
G1 X117.793 Y118.232 E25.44077
G1 X116.934 Y118.624 E25.47217
G1 X116.268 Y118.872 E25.49581
G1 X115.364 Y119.137 E25.52714
G1 X114.663 Y119.289 E25.551
G1 X113.73 Y119.423 E25.58235
G1 X113.023 Y119.473 E25.60593
G1 X112.557 Y119.489 E25.62143
G1 X82.521 Y119.488 E26.62044
G1 X82.028 Y119.47 E26.63684
G1 X81.347 Y119.419 E26.65956
G1 X80.416 Y119.282 E26.69086
G1 X79.719 Y119.128 E26.7146
G1 X78.827 Y118.863 E26.74555
G1 X78.16 Y118.613 E26.76924
G1 X77.303 Y118.22 E26.8006
G1 X76.67 Y117.873 E26.82461
G1 X75.897 Y117.376 E26.85517
G1 X75.346 Y116.965 E26.87803
G1 X74.625 Y116.342 E26.90973
G1 X74.113 Y115.83 E26.93381
G1 X73.49 Y115.11 E26.96548
G1 X73.061 Y114.535 E26.98934
G1 X72.553 Y113.742 E27.02066
G1 X72.207 Y113.106 E27.04474
G1 X71.814 Y112.238 E27.07643
G1 X71.567 Y111.569 E27.10015
G1 X71.305 Y110.67 E27.1313
G1 X71.155 Y109.972 E27.15504
G1 X71.024 Y109.041 E27.18631
G1 X70.976 Y108.348 E27.20942
G1 X70.96 Y107.892 E27.22459
G1 X70.961 Y67.85 E28.5564
G1 X70.978 Y67.37 E28.57237
G1 X71.027 Y66.698 E28.59478
G1 X71.162 Y65.772 E28.62591
G1 X71.314 Y65.075 E28.64963
G1 X71.579 Y64.173 E28.6809
G1 X71.828 Y63.506 E28.70458
G1 X72.22 Y62.647 E28.73599
G1 X72.57 Y62.007 E28.76025
G1 X73.087 Y61.207 E28.79193
G1 X73.515 Y60.638 E28.81561
G0 F3600 X73.834 Y60.878
G1 F1200 X74.405 Y60.221 E28.84456
G1 X74.899 Y59.727 E28.8678
G1 X75.578 Y59.14 E28.89765
G1 X76.151 Y58.713 E28.92142
G1 X76.877 Y58.247 E28.95011
G1 X77.503 Y57.904 E28.97385
G1 X78.307 Y57.535 E29.00328
G1 X78.969 Y57.287 E29.02679
G1 X79.819 Y57.036 E29.05627
G1 X80.514 Y56.884 E29.07993
G1 X81.395 Y56.757 E29.10953
G1 X82.119 Y56.705 E29.13368
G1 X82.563 Y56.689 E29.14845
G1 X112.599 Y56.69 E30.14745
G1 X113.054 Y56.707 E30.1626
G1 X113.72 Y56.756 E30.18481
G1 X114.58 Y56.88 E30.21371
G1 X115.276 Y57.031 E30.2374
G1 X115.574 Y57.103 E30.24759
G1 X116.158 Y57.291 E30.268
G1 X116.831 Y57.544 E30.29191
G1 X117.638 Y57.915 E30.32145
G1 X118.265 Y58.26 E30.34526
G1 X118.999 Y58.734 E30.37432
G1 X119.569 Y59.162 E30.39803
G1 X120.243 Y59.749 E30.42775
G1 X120.734 Y60.243 E30.45092
G1 X121.301 Y60.9 E30.47978
G1 X121.729 Y61.472 E30.50354
G1 X122.208 Y62.218 E30.53303
G1 X122.557 Y62.858 E30.55728
G1 X122.925 Y63.664 E30.58675
G1 X123.168 Y64.317 E30.60992
G1 X123.415 Y65.158 E30.63907
G1 X123.567 Y65.855 E30.6628
G1 X123.693 Y66.726 E30.69207
G1 X123.744 Y67.427 E30.71545
G1 X123.76 Y67.877 E30.73042
G1 X123.759 Y107.928 E32.06253
G1 X123.742 Y108.389 E32.07787
G1 X123.692 Y109.06 E32.10025
G1 X123.567 Y109.92 E32.12915
G1 X123.415 Y110.617 E32.15288
G1 X123.167 Y111.462 E32.18217
G1 X122.918 Y112.13 E32.20588
G1 X122.549 Y112.936 E32.23537
G1 X122.201 Y113.573 E32.25951
G1 X121.722 Y114.318 E32.28897
G1 X121.301 Y114.88 E32.31232
G1 X120.723 Y115.547 E32.34168
G1 X120.211 Y116.059 E32.36576
G1 X119.524 Y116.652 E32.39594
G1 X118.96 Y117.071 E32.41931
G1 X118.234 Y117.536 E32.44799
G1 X117.602 Y117.881 E32.47194
G1 X116.795 Y118.249 E32.50144
G1 X116.129 Y118.497 E32.52507
G1 X115.279 Y118.746 E32.55453
G1 X114.578 Y118.898 E32.57839
G1 X113.701 Y119.024 E32.60786
G1 X112.994 Y119.074 E32.63143
G1 X112.557 Y119.089 E32.64598
G1 X82.521 Y119.088 E33.64498
G1 X82.058 Y119.071 E33.66039
G1 X81.377 Y119.02 E33.6831
G1 X80.502 Y118.891 E33.71252
G1 X79.805 Y118.737 E33.73626
G1 X78.967 Y118.489 E33.76533
G1 X78.3 Y118.239 E33.78902
G1 X77.496 Y117.87 E33.81844
G1 X76.863 Y117.523 E33.84245
G1 X76.136 Y117.056 E33.87119
G1 X75.585 Y116.645 E33.89405
G1 X74.908 Y116.059 E33.92383
G1 X74.396 Y115.547 E33.94792
G1 X73.811 Y114.871 E33.97765
G1 X73.382 Y114.296 E34.00151
G1 X72.905 Y113.551 E34.03093
G1 X72.559 Y112.915 E34.05501
G1 X72.189 Y112.099 E34.08481
G1 X71.942 Y111.43 E34.10853
G1 X71.696 Y110.586 E34.13777
G1 X71.546 Y109.888 E34.16152
G1 X71.423 Y109.013 E34.19091
G1 X71.375 Y108.32 E34.21401
G1 X71.36 Y107.892 E34.22826
G1 X71.361 Y67.85 E35.56006
G1 X71.377 Y67.399 E35.57507
G1 X71.426 Y66.727 E35.59748
G1 X71.552 Y65.857 E35.62672
G1 X71.704 Y65.16 E35.65044
G1 X71.954 Y64.313 E35.67982
G1 X72.203 Y63.646 E35.7035
G1 X72.571 Y62.839 E35.733
G1 X72.921 Y62.199 E35.75726
G1 X73.406 Y61.447 E35.78702
G1 X73.834 Y60.878 E35.8107
G0 F3600 X74.154 Y61.118
G1 F1200 X74.688 Y60.504 E35.83777
G1 X75.182 Y60.01 E35.861
G1 X75.817 Y59.46 E35.88894
G1 X76.39 Y59.033 E35.91271
G1 X77.069 Y58.597 E35.93955
G1 X77.695 Y58.254 E35.96329
G1 X78.447 Y57.91 E35.9908
G1 X79.109 Y57.662 E36.01431
G1 X79.905 Y57.427 E36.04191
G1 X80.6 Y57.275 E36.06558
G1 X81.423 Y57.156 E36.09323
G1 X82.147 Y57.104 E36.11738
G1 X82.563 Y57.089 E36.13122
G1 X112.599 Y57.09 E37.13022
G1 X113.025 Y57.106 E37.1444
G1 X113.691 Y57.155 E37.16661
G1 X114.495 Y57.271 E37.19363
G1 X115.191 Y57.422 E37.21732
G1 X115.47 Y57.49 E37.22687
G1 X116.017 Y57.665 E37.24597
G1 X116.69 Y57.918 E37.26988
G1 X117.445 Y58.265 E37.29752
G1 X118.072 Y58.61 E37.32132
G1 X118.759 Y59.054 E37.34853
G1 X119.329 Y59.482 E37.37224
G1 X119.96 Y60.031 E37.40006
